X:5
T:Garscube House
R:strathspey
O:18th century Scotland
D:Highland Classic, Carl MacKenzie, 2007 S:http://www.cranfordpub.com/recordings/carl.htm
B:Niel Gow's 4th Repository, 1800
Z:psc -  http://www.cranfordpub.com
L:1/8
Q:288
M:C
K:Bb
G|F>BD>B FD|E>GF>D E<C (C/D/E)|F>BD>B FD|E>GF>E DG|
F>BD>B FD|E>GF>D E<CC>D|C<ED<F Gg|fc d<BB||
g|fB d>c c/d/e|fd B>ba>g|fB d>cc>g|f>dc>e dg|
fB d>c c/d/e|fd B>ba>g|fB d>cc>g|f>dc>A B<B,B,|]
